X:0198
T:There's nae luck about the house.
N:very different from the modern tune of this name
M:C
L:1/8
Q:1/2=104
I: :: (1) :: (2) ::
Z:Jack Campin * www.campin.me.uk * 2009
K:D
g|fedf     ecAc|ecAc     e3g|   fedf     ecAc|dBGB d2d:|
g|f/g/a Ac ecAg|f/g/a Ac e3g|[1 f/g/a Ac efge|dBGB d3 :|
                             [2 fdec     dBge|dBGB d2d|]

